build/img/svg/text-sedona.svg

<svg width="460" height="80" fill="none" xmlns="http://www.w3.org/2000/svg"><path d="M44.3 21.7c-3.6-3-8.1-5-12.9-5-3.6 0-8.3 2.1-8.3 6.3 0 4.4 5.3 6.1 8.6 7.1l5 1.5c10.4 3.1 18.5 8.3 18.5 20.4 0 7.4-1.8 15.1-7.7 20.1-5.9 5-13.7 7-21.2 7-9.4 0-18.7-3.2-26.3-8.5l8.3-15.7c4.9 4.3 10.6 7.7 17.3 7.7 4.6 0 9.4-2.3 9.4-7.5 0-5.5-7.6-7.3-11.8-8.5-12.4-3.3-20.4-6.5-20.4-21C2.8 10.4 13.6.5 28.6.5 36.1.5 45.4 2.9 52 6.7l-7.7 15zM91.6 19v12.5h21.9V48H91.6v12.9h23.2v16.5H72.2V2.5h42.6V19H91.6zM129.2 2.5h27.6c20.8 0 38 16.4 38 37.4s-17.3 37.4-38 37.4h-27.6V2.5zm19.5 58.3h4.4c11.6 0 21.5-6.4 21.5-20.9 0-13.4-8.8-20.9-21.3-20.9h-4.6v41.8zM286.7 38.5c0 24.2-17.4 41.3-41.4 41.3s-41.4-17.1-41.4-41.3c0-22.6 19.9-38.5 41.4-38.5s41.4 15.9 41.4 38.5zm-62.6.1c0 12.9 9.5 22.3 21.1 22.3 11.6 0 21.1-9.4 21.1-22.3 0-10.3-9.5-19.8-21.1-19.8-11.5.1-21.1 9.5-21.1 19.8zM297 2.5h19.5l35.6 45.8h.2V2.5h19.5v74.8h-19.5l-35.6-45.9h-.2v45.9H297V2.5zM407.1 64.3l-5.2 13h-20.6l28.8-74.8h21.2l28.2 74.8h-20.7l-4.9-13h-26.8zm13.6-38.7h-.2l-8 23.8h16.2l-8-23.8z" fill="#fff"/></svg>

<svg width="460" height="80" viewBox="0 0 460 80" fill="none" xmlns="http://www.w3.org/2000/svg">
<path d="M44.3 21.7C40.7 18.7 36.2 16.7 31.4 16.7C27.8 16.7 23.1 18.8 23.1 23C23.1 27.4 28.4 29.1 31.7 30.1L36.7 31.6C47.1 34.7 55.2 39.9 55.2 52C55.2 59.4 53.4 67.1 47.5 72.1C41.6 77.1 33.8 79.1 26.3 79.1C16.9 79.1 7.6 75.9 0 70.6L8.3 54.9C13.2 59.2 18.9 62.6 25.6 62.6C30.2 62.6 35 60.3 35 55.1C35 49.6 27.4 47.8 23.2 46.6C10.8 43.3 2.8 40.1 2.8 25.6C2.8 10.4 13.6 0.5 28.6 0.5C36.1 0.5 45.4 2.9 52 6.7L44.3 21.7Z" fill="white"/>
<path d="M91.6002 19V31.5H113.5V48H91.6002V60.9H114.8V77.4H72.2002V2.5H114.8V19H91.6002Z" fill="white"/>
<path d="M129.2 2.5H156.8C177.6 2.5 194.8 18.9 194.8 39.9C194.8 60.9 177.5 77.3 156.8 77.3H129.2V2.5ZM148.7 60.8H153.1C164.7 60.8 174.6 54.4 174.6 39.9C174.6 26.5 165.8 19 153.3 19H148.7V60.8Z" fill="white"/>
<path d="M286.7 38.5C286.7 62.7 269.3 79.8 245.3 79.8C221.3 79.8 203.9 62.7 203.9 38.5C203.9 15.9 223.8 0 245.3 0C266.8 0 286.7 15.9 286.7 38.5ZM224.1 38.6C224.1 51.5 233.6 60.9 245.2 60.9C256.8 60.9 266.3 51.5 266.3 38.6C266.3 28.3 256.8 18.8 245.2 18.8C233.7 18.9 224.1 28.3 224.1 38.6Z" fill="white"/>
<path d="M297 2.5H316.5L352.1 48.3H352.3V2.5H371.8V77.3H352.3L316.7 31.4H316.5V77.3H297V2.5Z" fill="white"/>
<path d="M407.1 64.3L401.9 77.3H381.3L410.1 2.5H431.3L459.5 77.3H438.8L433.9 64.3H407.1ZM420.7 25.6H420.5L412.5 49.4H428.7L420.7 25.6Z" fill="white"/>
</svg>
